X:401
T:The old grey cat
R:Reel
O:Scotland
B:Kerr's First p28- almost exactly this version...
S:Nottingham Music Database
S:Leslie Dolmen, via EF
Z:Transcription:?, slight arr., Chords:Mike Long
M:C|
L:1/8
K:G
"Em"e2e2 E2EF|GFGA BAB^c|"D"d2d2 D2DE|\
FAdB AFED|"Em"e2e2 E2EF|\
GFGA BAB^c|"D"dcBA "Bm"BAGF|
"Em"E4 E2B2:|\
|:"Em"B2e2 e3d|Bdef gfed|\
"D"A2d2 d3B|ABde fedf|"Em"e2B2 g2B2|\
a2B2 b3a|"D"gfed "Bm"Bgfg|"Em"e4 e2B2:|
